Numix-Light/16/status/indicator-keyboard-Yo.svg

<?xml version="1.0" encoding="UTF-8" standalone="no"?>
<svg
   xmlns:dc="http://purl.org/dc/elements/1.1/"
   xmlns:cc="http://creativecommons.org/ns#"
   xmlns:rdf="http://www.w3.org/1999/02/22-rdf-syntax-ns#"
   xmlns:svg="http://www.w3.org/2000/svg"
   xmlns="http://www.w3.org/2000/svg"
   xmlns:sodipodi="http://sodipodi.sourceforge.net/DTD/sodipodi-0.dtd"
   xmlns:inkscape="http://www.inkscape.org/namespaces/inkscape"
   viewBox="0 0 16 16"
   id="svg2"
   version="1.1"
   inkscape:version="0.91 r13725"
   sodipodi:docname="indicator-keyboard-Yo.svg">
  <metadata
     id="metadata13">
    <rdf:RDF>
      <cc:Work
         rdf:about="">
        <dc:format>image/svg+xml</dc:format>
        <dc:type
           rdf:resource="http://purl.org/dc/dcmitype/StillImage" />
      </cc:Work>
    </rdf:RDF>
  </metadata>
  <defs
     id="defs11" />
  <sodipodi:namedview
     pagecolor="#ffffff"
     bordercolor="#666666"
     borderopacity="1"
     objecttolerance="10"
     gridtolerance="10"
     guidetolerance="10"
     inkscape:pageopacity="0"
     inkscape:pageshadow="2"
     inkscape:window-width="640"
     inkscape:window-height="480"
     id="namedview9"
     showgrid="false"
     inkscape:zoom="14.75"
     inkscape:cx="8"
     inkscape:cy="8"
     inkscape:window-x="65"
     inkscape:window-y="24"
     inkscape:window-maximized="0"
     inkscape:current-layer="svg2" />
  <path
     style="fill:#353535;fill-opacity:1"
     d="M 1.5996094 0 C 0.71320937 2.9605947e-16 0 0.71320937 0 1.5996094 L 0 14.400391 C 2.9605947e-16 15.286791 0.71320937 16 1.5996094 16 L 14.400391 16 C 15.286791 16 16 15.286791 16 14.400391 L 16 1.5996094 C 16 0.71320937 15.286791 0 14.400391 0 L 1.5996094 0 z M 3.2832031 4.828125 L 3.9941406 4.828125 C 4.2461406 5.356125 4.5222656 5.8934531 4.8222656 6.4394531 C 5.1282656 6.9794531 5.4453906 7.4943281 5.7753906 7.9863281 C 6.0933906 7.4943281 6.4049375 6.9794531 6.7109375 6.4394531 C 7.0169375 5.8934531 7.3005938 5.356125 7.5585938 4.828125 L 8.2246094 4.828125 C 7.9066094 5.398125 7.5707969 5.991375 7.2167969 6.609375 C 6.8627969 7.221375 6.4784531 7.8464219 6.0644531 8.4824219 L 6.0644531 11.064453 L 5.4511719 11.064453 L 5.4511719 8.5 C 5.0251719 7.846 4.6334375 7.215375 4.2734375 6.609375 C 3.9194375 5.997375 3.5892031 5.404125 3.2832031 4.828125 z M 10.59375 6.3027344 C 10.90575 6.3027344 11.189266 6.364375 11.447266 6.484375 C 11.705266 6.598375 11.927281 6.7625156 12.113281 6.9785156 C 12.305281 7.1885156 12.452687 7.4441406 12.554688 7.7441406 C 12.662688 8.0441406 12.716797 8.3761875 12.716797 8.7421875 C 12.716797 9.1081875 12.662688 9.4421875 12.554688 9.7421875 C 12.452687 10.042188 12.305281 10.295859 12.113281 10.505859 C 11.927281 10.715859 11.705266 10.881953 11.447266 11.001953 C 11.189266 11.115953 10.90575 11.171875 10.59375 11.171875 C 10.28175 11.171875 9.9962813 11.115953 9.7382812 11.001953 C 9.4802812 10.881953 9.2545 10.715859 9.0625 10.505859 C 8.8765 10.295859 8.7310469 10.042188 8.6230469 9.7421875 C 8.5210469 9.4421875 8.46875 9.1081875 8.46875 8.7421875 C 8.46875 8.3761875 8.5210469 8.0441406 8.6230469 7.7441406 C 8.7310469 7.4441406 8.8765 7.1885156 9.0625 6.9785156 C 9.2545 6.7625156 9.4802812 6.598375 9.7382812 6.484375 C 9.9962813 6.364375 10.28175 6.3027344 10.59375 6.3027344 z M 10.59375 6.8339844 C 10.13175 6.8339844 9.7660937 7.0094219 9.4960938 7.3574219 C 9.2260938 7.6994219 9.0898437 8.1601875 9.0898438 8.7421875 C 9.0898438 9.3241875 9.2260938 9.7869062 9.4960938 10.128906 C 9.7660938 10.470906 10.13175 10.640625 10.59375 10.640625 C 11.05575 10.640625 11.421406 10.470906 11.691406 10.128906 C 11.961406 9.7869062 12.095703 9.3241875 12.095703 8.7421875 C 12.095703 8.1601875 11.961406 7.6994219 11.691406 7.3574219 C 11.421406 7.0094219 11.05575 6.8339844 10.59375 6.8339844 z "
     id="path4" />
</svg>

<svg xmlns="http://www.w3.org/2000/svg" viewBox="0 0 16 16">
 <path d="m 1.6 0 c -0.886 0 -1.6 0.713 -1.6 1.6 l 0 12.801 c 0 0.886 0.713 1.6 1.6 1.6 l 12.801 0 c 0.886 0 1.6 -0.713 1.6 -1.6 l 0 -12.801 c 0 -0.886 -0.713 -1.6 -1.6 -1.6 l -12.801 0 z m 1.684 4.828 l 0.711 0 c 0.252 0.528 0.528 1.065 0.828 1.611 c 0.306 0.54 0.623 1.055 0.953 1.547 c 0.318 -0.492 0.63 -1.01 0.936 -1.547 c 0.306 -0.546 0.59 -1.083 0.848 -1.611 l 0.666 0 c -0.318 0.57 -0.654 1.163 -1.01 1.781 c -0.354 0.612 -0.738 1.237 -1.152 1.873 l 0 2.582 l -0.613 0 l 0 -2.564 c -0.426 -0.654 -0.818 -1.285 -1.178 -1.891 c -0.354 -0.612 -0.684 -1.205 -0.99 -1.781 z m 7.311 1.475 c 0.312 0 0.596 0.062 0.854 0.182 c 0.258 0.114 0.48 0.278 0.666 0.494 c 0.192 0.21 0.339 0.466 0.441 0.766 c 0.108 0.3 0.162 0.632 0.162 0.998 c 0 0.366 -0.054 0.7 -0.162 1 c -0.102 0.3 -0.249 0.554 -0.441 0.764 c -0.186 0.21 -0.408 0.376 -0.666 0.496 c -0.258 0.114 -0.542 0.17 -0.854 0.17 c -0.312 0 -0.597 -0.056 -0.855 -0.17 c -0.258 -0.12 -0.484 -0.286 -0.676 -0.496 c -0.186 -0.21 -0.331 -0.464 -0.439 -0.764 c -0.102 -0.3 -0.154 -0.634 -0.154 -1 c 0 -0.366 0.052 -0.698 0.154 -0.998 c 0.108 -0.3 0.253 -0.556 0.439 -0.766 c 0.192 -0.216 0.418 -0.38 0.676 -0.494 c 0.258 -0.12 0.543 -0.182 0.855 -0.182 z m 0 0.531 c -0.462 0 -0.828 0.175 -1.098 0.523 c -0.27 0.342 -0.406 0.803 -0.406 1.385 c 0 0.582 0.136 1.045 0.406 1.387 c 0.27 0.342 0.636 0.512 1.098 0.512 c 0.462 0 0.828 -0.17 1.098 -0.512 c 0.27 -0.342 0.404 -0.805 0.404 -1.387 c 0 -0.582 -0.134 -1.043 -0.404 -1.385 c -0.27 -0.348 -0.636 -0.523 -1.098 -0.523 z" style="fill:#353535;fill-opacity:1"/>
</svg>
